pix_core/f/audio.svg

<svg fill="none" preserveAspectRatio="xMinYMid meet" viewBox="0 0 24 24" xmlns="http://www.w3.org/2000/svg"><g fill="#fff"><path clip-rule="evenodd" d="m7 14c0-.8284.67157-1.5 1.5-1.5h.79282l1.14648-1.1465c.945-.945 2.5607-.2757 2.5607 1.0606v4.1716c0 1.3364-1.6157 2.0056-2.5607 1.0607l-1.14633-1.1464h-.79297c-.82843 0-1.5-.6716-1.5-1.5zm2.49133 1.5c.13084-.0023.26239.0465.36222.1464l1.29285 1.2929c.315.3149.8536.0919.8536-.3536v-4.1716c0-.4454-.5386-.6685-.8536-.3535l-1.29285 1.2929c-.09763.0976-.22559.1464-.35355.1464l-1 .0001c-.27614 0-.5.2239-.5.5v1c0 .2761.22386.5.5.5z" fill-rule="evenodd"/><path d="m13.6843 13.0745c.1921-.1983.5086-.2034.707-.0113.3748.363.6088.873.6088 1.4368s-.234 1.0739-.6088 1.4369c-.1984.1921-.5149.187-.707-.0114s-.187-.5149.0113-.707c.1884-.1824.3045-.4364.3045-.7185 0-.282-.1161-.5361-.3045-.7185-.1983-.1921-.2034-.5086-.0113-.707z"/><path d="m14.7147 10.8852c-.2495-.1185-.5477-.0124-.6662.237-.1185.2495-.0124.5477.2371.6662 1.0147.4821 1.7145 1.5156 1.7145 2.7116s-.6998 2.2295-1.7145 2.7115c-.2495.1185-.3556.4168-.2371.6662s.4167.3556.6662.2371c1.3502-.6414 2.2854-2.0184 2.2854-3.6148s-.9352-2.9734-2.2854-3.6148z"/><path clip-rule="evenodd" d="m19.5 19c0 1.3807-1.1193 2.5-2.5 2.5h-10c-1.38071 0-2.5-1.1193-2.5-2.5v-14c0-1.38071 1.11929-2.5 2.5-2.5h6.1716c.663 0 1.2989.26339 1.7677.73223l3.8285 3.82843c.4688.46884.7322 1.10473.7322 1.76777zm-14-14c0-.82843.67157-1.5 1.5-1.5h6c.2761 0 .5.22386.5.5v3c0 .82843.6716 1.5 1.5 1.5h3c.2761 0 .5.22386.5.5v10c0 .8284-.6716 1.5-1.5 1.5h-10c-.82843 0-1.5-.6716-1.5-1.5zm9-.79289 3.2929 3.29289h-2.7929c-.2761 0-.5-.22386-.5-.5z" fill-rule="evenodd"/></g></svg>

<svg viewBox="0 0 24 24" fill="none" xmlns="http://www.w3.org/2000/svg" preserveAspectRatio="xMinYMid meet">
<path fill-rule="evenodd" clip-rule="evenodd" d="M7 14C7 13.1716 7.67157 12.5 8.5 12.5H9.29282L10.4393 11.3535C11.3843 10.4085 13 11.0778 13 12.4141V16.5857C13 17.9221 11.3843 18.5913 10.4393 17.6464L9.29297 16.5H8.5C7.67157 16.5 7 15.8284 7 15V14ZM9.49133 15.5C9.62217 15.4977 9.75372 15.5465 9.85355 15.6464L11.1464 16.9393C11.4614 17.2542 12 17.0312 12 16.5857V12.4141C12 11.9687 11.4614 11.7456 11.1464 12.0606L9.85355 13.3535C9.75592 13.4511 9.62796 13.4999 9.5 13.4999L8.5 13.5C8.22386 13.5 8 13.7239 8 14V15C8 15.2761 8.22386 15.5 8.5 15.5H9.49133Z" fill="#fff"/>
<path  d="M13.6843 13.0745C13.8764 12.8762 14.1929 12.8711 14.3913 13.0632C14.7661 13.4262 15.0001 13.9362 15.0001 14.5C15.0001 15.0638 14.7661 15.5739 14.3913 15.9369C14.1929 16.129 13.8764 16.1239 13.6843 15.9255C13.4922 15.7271 13.4973 15.4106 13.6956 15.2185C13.884 15.0361 14.0001 14.7821 14.0001 14.5C14.0001 14.218 13.884 13.9639 13.6956 13.7815C13.4973 13.5894 13.4922 13.2729 13.6843 13.0745Z" fill="#fff"/>
<path  d="M14.7147 10.8852C14.4652 10.7667 14.167 10.8728 14.0485 11.1222C13.93 11.3717 14.0361 11.6699 14.2856 11.7884C15.3003 12.2705 16.0001 13.304 16.0001 14.5C16.0001 15.696 15.3003 16.7295 14.2856 17.2115C14.0361 17.33 13.93 17.6283 14.0485 17.8777C14.167 18.1271 14.4652 18.2333 14.7147 18.1148C16.0649 17.4734 17.0001 16.0964 17.0001 14.5C17.0001 12.9036 16.0649 11.5266 14.7147 10.8852Z" fill="#fff"/>
<path fill-rule="evenodd" clip-rule="evenodd" d="M19.5 19C19.5 20.3807 18.3807 21.5 17 21.5H7C5.61929 21.5 4.5 20.3807 4.5 19V5C4.5 3.61929 5.61929 2.5 7 2.5H13.1716C13.8346 2.5 14.4705 2.76339 14.9393 3.23223L18.7678 7.06066C19.2366 7.5295 19.5 8.16539 19.5 8.82843V19ZM5.5 5C5.5 4.17157 6.17157 3.5 7 3.5H13C13.2761 3.5 13.5 3.72386 13.5 4V7C13.5 7.82843 14.1716 8.5 15 8.5H18C18.2761 8.5 18.5 8.72386 18.5 9V19C18.5 19.8284 17.8284 20.5 17 20.5H7C6.17157 20.5 5.5 19.8284 5.5 19V5ZM14.5 4.20711L17.7929 7.5H15C14.7239 7.5 14.5 7.27614 14.5 7V4.20711Z" fill="#fff"/>
</svg>
